icons/caret-square-up-16.svg

<svg xmlns="http://www.w3.org/2000/svg" viewBox="0 0 16 16"><title>caret-square-up-16</title><g id="icons"><path d="M14.07141,15A.92859.92859,0,0,0,15,14.07141V1.92853A.92853.92853,0,0,0,14.07141,1H1.92859A.92853.92853,0,0,0,1,1.92853V14.07141A.92859.92859,0,0,0,1.92859,15ZM2,2H14V14H2ZM8,5.71143,12.28851,10h-8.577Z"/></g></svg>

<svg xmlns="http://www.w3.org/2000/svg" viewBox="0 0 16 16"><path d="M14.071 15a.929.929 0 00.929-.929V1.93a.929.929 0 00-.929-.93H1.93a.929.929 0 00-.93.929V14.07a.929.929 0 00.929.929zM2 2h12v12H2zm6 3.711L12.289 10H3.712z"/></svg>
